Numix-GalliumOS/16/mimetypes/image-x-compressed-xcf.svg

<?xml version="1.0" encoding="UTF-8" standalone="no"?>
<svg
   xmlns:dc="http://purl.org/dc/elements/1.1/"
   xmlns:cc="http://creativecommons.org/ns#"
   xmlns:rdf="http://www.w3.org/1999/02/22-rdf-syntax-ns#"
   xmlns:svg="http://www.w3.org/2000/svg"
   xmlns="http://www.w3.org/2000/svg"
   xmlns:sodipodi="http://sodipodi.sourceforge.net/DTD/sodipodi-0.dtd"
   xmlns:inkscape="http://www.inkscape.org/namespaces/inkscape"
   width="16"
   height="16"
   viewBox="0 0 16 16"
   id="svg2"
   version="1.1"
   inkscape:version="0.48.5 r10040"
   sodipodi:docname="image-x-compressed-xcf.svg">
  <metadata
     id="metadata20">
    <rdf:RDF>
      <cc:Work
         rdf:about="">
        <dc:format>image/svg+xml</dc:format>
        <dc:type
           rdf:resource="http://purl.org/dc/dcmitype/StillImage" />
      </cc:Work>
    </rdf:RDF>
  </metadata>
  <defs
     id="defs18" />
  <sodipodi:namedview
     pagecolor="#ffffff"
     bordercolor="#666666"
     borderopacity="1"
     objecttolerance="10"
     gridtolerance="10"
     guidetolerance="10"
     inkscape:pageopacity="0"
     inkscape:pageshadow="2"
     inkscape:window-width="1280"
     inkscape:window-height="970"
     id="namedview16"
     showgrid="true"
     inkscape:zoom="7.375"
     inkscape:cx="-10.537027"
     inkscape:cy="26.589263"
     inkscape:window-x="0"
     inkscape:window-y="0"
     inkscape:window-maximized="1"
     inkscape:current-layer="svg2">
    <inkscape:grid
       type="xygrid"
       id="grid3008" />
  </sodipodi:namedview>
  <path
     style="fill:#9a773c;fill-opacity:1"
     d="M 2.667969,-4.46e-4 C 2.324219,-4.46e-4 2,0.337812 2,0.6964467 L 2,15.303108 C 2,15.641365 2.34375,16 2.667969,16 l 10.664062,0 C 13.65625,16 14,15.641365 14,15.303108 L 14,3.9995538 10,-4.46e-4 z"
     id="path4-0"
     inkscape:connector-curvature="0"
     sodipodi:nodetypes="ssssssccs" />
  <path
     style="fill:#000000;fill-opacity:0.19599998"
     d="m 10.583223,3.3315848 0.0154,0.01953 0.04005,-0.01953 z m 0.02978,0.667969 3.387,3.664062 0,-3.664062 z"
     id="path6"
     inkscape:connector-curvature="0"
     sodipodi:nodetypes="cccccccc" />
  <path
     style="fill:#ffffff;fill-opacity:0.39200003"
     d="m 10,-4.46e-4 3.996396,3.9999998 -3.383784,0 C 10.313513,3.9995538 10,3.6824368 10,3.3833378 z"
     id="path8"
     inkscape:connector-curvature="0"
     sodipodi:nodetypes="ccssc" />
  <path
     style="fill:#f9f9f9;fill-opacity:1"
     inkscape:connector-curvature="0"
     id="path12"
     d="m 11.453821,6.6738916 c -0.03223,0.016113 -0.06445,0.069823 -0.09131,0.1611307 -0.08056,0.2416982 -0.639149,1.9120942 -3.8026958,1.9926589 -1.5092653,0.037598 -2.153791,-1.3051648 -2.153791,-1.3051648 l -0.037596,1.7294779 c 0,0 0.1611308,0.3867154 -0.1611321,0.7895447 -0.016114,-0.02685 -0.026855,-0.059084 -0.048339,-0.085937 C 5.04079,9.7944697 4.9065142,9.6548232 4.7614956,9.5527729 4.5949941,9.4346106 4.4177485,9.3540445 4.2512471,9.3325603 4.0525173,9.3003333 3.8591596,9.3433017 3.7087703,9.4560934 3.558381,9.5688864 3.4670735,9.7353892 3.4348479,9.9394883 c -0.032227,0.1718737 -0.021485,0.3598607 0.037596,0.5532187 0.048341,0.177244 0.1289052,0.349117 0.2470689,0.51562 0.123533,0.171874 0.2739237,0.322263 0.4350545,0.429684 0.1826163,0.123529 0.3706019,0.193358 0.5585889,0.204099 0.059082,0 0.1181623,-0.01073 0.1718735,-0.02149 1.2138573,0.977531 3.6254572,1.890608 5.226029,0.848626 0.03223,0.01072 0.06982,0.02685 0.10205,0.03759 0,0.01611 -0.0054,0.03223 0,0.04834 l 0.07519,-0.02685 c 0.01611,0.0054 0.02686,0.01611 0.0376,0.01611 0.0054,0 0.0054,0 0.01074,0 l 0.02685,0.03223 0.719721,0.25781 c -0.02685,0.25244 0.09668,0.542476 0.408198,0.66601 C 12.055378,13.720706 12.58174,14 12.58174,14 c -0.268551,-0.929191 -0.365231,-1.675767 -1.068837,-1.605943 -0.134281,0.01072 -0.230955,0.06444 -0.306151,0.145018 l -0.633783,-0.418942 -0.02686,0 -0.01074,-0.0054 c 0.853997,-0.859367 1.353504,-2.4653093 1.052726,-5.2582538 -0.01612,-0.139648 -0.0752,-0.2148419 -0.134282,-0.1826163 z" />
  <rect
     style="fill:#f9f9f9;fill-opacity:1;fill-rule:evenodd;stroke:none"
     id="rect3012"
     width="1"
     height="1"
     x="6"
     y="0" />
  <rect
     style="fill:#f9f9f9;fill-opacity:1;fill-rule:evenodd;stroke:none"
     id="rect3014"
     width="1"
     height="1"
     x="5"
     y="1" />
  <rect
     style="fill:#f9f9f9;fill-opacity:1;fill-rule:evenodd;stroke:none"
     id="rect3016"
     width="1"
     height="1"
     x="6"
     y="2" />
  <rect
     style="fill:#f9f9f9;fill-opacity:1;fill-rule:evenodd;stroke:none"
     id="rect3018"
     width="1"
     height="1"
     x="5"
     y="3" />
  <rect
     style="fill:#f9f9f9;fill-opacity:1;fill-rule:evenodd;stroke:none"
     id="rect3020"
     width="2"
     height="2"
     x="5"
     y="5" />
</svg>

<svg xmlns="http://www.w3.org/2000/svg" viewBox="0 0 16 16">
 <path d="m 2.668 0 c -0.344 0 -0.668 0.338 -0.668 0.697 l 0 14.607 c 0 0.338 0.344 0.697 0.668 0.697 l 10.664 0 c 0.324 0 0.668 -0.359 0.668 -0.697 l 0 -11.304 -4 -4 z" style="fill:#9a773c;fill-opacity:1"/>
 <path d="m 10.583 3.332 0.015 0.02 0.04 -0.02 z m 0.03 0.668 3.387 3.664 0 -3.664 z" style="fill:#000;fill-opacity:0.196"/>
 <path d="m 10 0 3.996 4 -3.384 0 c -0.299 0 -0.613 -0.317 -0.613 -0.616 z" style="fill:#fff;fill-opacity:0.392"/>
 <path d="m 11.454 6.674 c -0.032 0.016 -0.064 0.07 -0.091 0.161 -0.081 0.242 -0.639 1.912 -3.803 1.993 -1.509 0.038 -2.154 -1.305 -2.154 -1.305 l -0.038 1.729 c 0 0 0.161 0.387 -0.161 0.79 -0.016 -0.027 -0.027 -0.059 -0.048 -0.086 c -0.118 -0.161 -0.252 -0.301 -0.397 -0.403 -0.167 -0.118 -0.344 -0.199 -0.51 -0.22 -0.199 -0.032 -0.392 0.011 -0.542 0.124 -0.15 0.113 -0.242 0.279 -0.274 0.483 c -0.032 0.172 -0.021 0.36 0.038 0.553 0.048 0.177 0.129 0.349 0.247 0.516 0.124 0.172 0.274 0.322 0.435 0.43 0.183 0.124 0.371 0.193 0.559 0.204 0.059 0 0.118 -0.011 0.172 -0.021 1.214 0.978 3.625 1.891 5.226 0.849 0.032 0.011 0.07 0.027 0.102 0.038 0 0.016 -0.005 0.032 0 0.048 l 0.075 -0.027 c 0.016 0.005 0.027 0.016 0.038 0.016 0.005 0 0.005 0 0.011 0 l 0.027 0.032 0.72 0.258 c -0.027 0.252 0.097 0.542 0.408 0.666 c 0.564 0.22 1.09 0.5 1.09 0.5 c -0.269 -0.929 -0.365 -1.676 -1.069 -1.606 -0.134 0.011 -0.231 0.064 -0.306 0.145 l -0.634 -0.419 -0.027 0 -0.011 -0.005 c 0.854 -0.859 1.354 -2.465 1.053 -5.258 -0.016 -0.14 -0.075 -0.215 -0.134 -0.183 z" style="fill:#f9f9f9;fill-opacity:1"/>
 <rect width="1" height="1" x="6" style="fill:#f9f9f9;fill-opacity:1;stroke:none;fill-rule:evenodd"/>
 <rect width="1" height="1" x="5" y="1" style="fill:#f9f9f9;fill-opacity:1;stroke:none;fill-rule:evenodd"/>
 <rect width="1" height="1" x="6" y="2" style="fill:#f9f9f9;fill-opacity:1;stroke:none;fill-rule:evenodd"/>
 <rect width="1" height="1" x="5" y="3" style="fill:#f9f9f9;fill-opacity:1;stroke:none;fill-rule:evenodd"/>
 <rect width="2" height="2" x="5" y="5" style="fill:#f9f9f9;fill-opacity:1;stroke:none;fill-rule:evenodd"/>
</svg>
